packages/icons/svg/Fill/expand.svg

<svg fill="none" height="24" viewBox="0 0 24 24" width="24" xmlns="http://www.w3.org/2000/svg"><path clip-rule="evenodd" d="m19.0016 4.02549c.55.003.995.449.995.999l.003 4.975c.001.55201-.447 1.00101-.999 1.00101h-.001c-.552 0-.999-.448-1-.999l-.002-2.58501-3.291 3.29101c-.195.195-.451.293-.707.293-.255 0-.511-.098-.707-.293-.39-.391-.39-1.02401 0-1.41401l3.28-3.28-2.577-.013c-.553-.003-.999-.454-.996-1.005s.451-.995 1-.995h.005zm-9.70862 9.26781c.391-.391 1.02302-.391 1.41402 0s.391 1.023 0 1.414l-3.29202 3.292 2.585.0009c.55302 0 1.00002.448 1.00002 1.001-.001.552-.448.999-1.00002.999h-.001l-4.975-.003c-.55 0-.996-.445-.999-.9949l-.025-4.997c-.003-.552.443-1.002.995-1.005h.005c.55 0 .997.444 1 .995l.013 2.578z" fill="#6b7280" fill-rule="evenodd"/></svg>

<svg width="24" height="24" viewBox="0 0 24 24" fill="none" xmlns="http://www.w3.org/2000/svg">
<g id="Icon/Fill/expand">
<path id="Mask" fill-rule="evenodd" clip-rule="evenodd" d="M19.0016 4.0254C19.5516 4.0284 19.9966 4.4744 19.9966 5.0244L19.9996 9.9994C20.0006 10.5514 19.5526 11.0004 19.0006 11.0004H18.9996C18.4476 11.0004 18.0006 10.5524 17.9996 10.0014L17.9976 7.4164L14.7066 10.7074C14.5116 10.9024 14.2556 11.0004 13.9996 11.0004C13.7446 11.0004 13.4886 10.9024 13.2926 10.7074C12.9026 10.3164 12.9026 9.6834 13.2926 9.2934L16.5726 6.0134L13.9956 6.0004C13.4426 5.9974 12.9966 5.5464 12.9996 4.9954C13.0026 4.4444 13.4506 4.0004 13.9996 4.0004H14.0046L19.0016 4.0254ZM9.29302 13.293C9.68401 12.902 10.316 12.902 10.707 13.293C11.098 13.684 11.098 14.316 10.707 14.707L7.41501 17.999L10 18C10.553 18 11 18.448 11 19.001C10.999 19.553 10.552 20 10 20H9.99901L5.02402 19.997C4.47402 19.997 4.02802 19.552 4.02502 19.002L4.00002 14.005C3.99702 13.453 4.44302 13.003 4.99502 13H5.00002C5.55001 13 5.99701 13.444 6.00002 13.995L6.01302 16.573L9.29302 13.293Z" fill="#000000"/>
</g>
</svg>
